icon-themes/sifr_svg/cmd/lc_gluehorzaligncenter.svg

<svg viewBox="0 0 24 24" xmlns="http://www.w3.org/2000/svg"><g fill="#555753"><path d="m10 6v4h-4v4h4v4h4v-4h4v-4h-4v-4z" opacity=".35"/><path d="m2 22h4v-.002c.0009109-.711574.1635297-1.377316.4335938-1.998h-2.4335938v-16h16v16h-2.433594c.270064.620681.432688 1.28641.433594 1.998047v.001953h4v-20h-20zm6 0h8c-.0018-1.427234-.763978-2.745368-2-3.458984v-6.541016c0-1.1-.91-2-2-2-1.1 0-2 .9-2 2v6.541016c-1.236022.713616-1.998173 2.03175-2 3.458984z"/></g></svg>

<svg xmlns="http://www.w3.org/2000/svg" viewBox="0 0 24 24">
  <path
     style="opacity:0.35;fill:#555753"
     d="m 10,6 v 4 H 6 v 4 h 4 v 4 h 4 v -4 h 4 V 10 H 14 V 6 Z"
     />
  <path
     style="fill:#555753"
     d="m 2,22 h 4 v -0.002 C 6.0009109,21.286426 6.1635297,20.620684 6.4335938,20 H 4 V 4 H 20 V 20 H 17.566406 C 17.83647,20.620681 17.999094,21.28641 18,21.998047 V 22 h 4 V 2 H 2 Z m 6,0 h 8 C 15.9982,20.572766 15.236022,19.254632 14,18.541016 V 12 c 0,-1.1 -0.91,-2 -2,-2 -1.1,0 -2,0.9 -2,2 v 6.541016 C 8.763978,19.254632 8.001827,20.572766 8,22 Z"
     />
</svg>
